common/src/main/resources/icons/actions/mt/removeWallpaper.svg

<svg xmlns="http://www.w3.org/2000/svg" width="16" height="16" fill="#9E9E9E" data-big="true" viewBox="0 0 24 24"><path d="M2.28 3 1 4.27l2 2V19a2 2 0 0 0 2 2h12.73l2 2L21 21.72zm2.55 0L21 19.17V5a2 2 0 0 0-2-2zM8.5 13.5l2.5 3 1-1.25L14.73 18H5z"/></svg>

<!--
  - The MIT License (MIT)
  -
  - Copyright (c) 2015-2024 Elior "Mallowigi" Boukhobza
  -
  - Permission is hereby granted, free of charge, to any person obtaining a copy
  - of this software and associated documentation files (the "Software"), to deal
  - in the Software without restriction, including without limitation the rights
  - to use, copy, modify, merge, publish, distribute, sublicense, and/or sell
  - copies of the Software, and to permit persons to whom the Software is
  - furnished to do so, subject to the following conditions:
  -
  - The above copyright notice and this permission notice shall be included in all
  - copies or substantial portions of the Software.
  -
  - THE SOFTWARE IS PROVIDED "AS IS", WITHOUT WARRANTY OF ANY KIND, EXPRESS OR
  - IMPLIED, INCLUDING BUT NOT LIMITED TO THE WARRANTIES OF MERCHANTABILITY,
  - FITNESS FOR A PARTICULAR PURPOSE AND NONINFRINGEMENT. IN NO EVENT SHALL THE
  - AUTHORS OR COPYRIGHT HOLDERS BE LIABLE FOR ANY CLAIM, DAMAGES OR OTHER
  - LIABILITY, WHETHER IN AN ACTION OF CONTRACT, TORT OR OTHERWISE, ARISING FROM,
  - OUT OF OR IN CONNECTION WITH THE SOFTWARE OR THE USE OR OTHER DEALINGS IN THE
  - SOFTWARE.
  -->


<svg data-big="true" xmlns="http://www.w3.org/2000/svg" version="1.1" width="16px" height="16px" viewBox="0 0 24 24"
     fill="#9E9E9E">
  <path
    d="M2.28,3L1,4.27L3,6.27V19A2,2 0 0,0 5,21H17.73L19.73,23L21,21.72L2.28,3M4.83,3L21,19.17V5C21,3.89 20.1,3 19,3H4.83M8.5,13.5L11,16.5L12,15.25L14.73,18H5L8.5,13.5Z"/>
</svg>
